X: 19405
T: Jackie Daly's
R: reel
M: 4/4
K: Bminor
de|fedc BF~F2|AFEF DEFA|Bcde fB~B2|ABde faef|
dcBA BF~F2|AFEF DEFA|Bcde faef|dBAF D2:|:dc|
Bcde fb~b2|gfeg fedf|ec~c2 Ac~c2|ecac e2dc|
Bcde fb~b2|gfeg fedf|ecac bcac|gece d2:|

